X: 6
T: John With the Light Brown Hair
P: piffero primo a0458
O: Roche collection
F: http://ancients.sudburymuster.org/mus/ssp/pdf/involuntaryF.pdf
Z: 2019 John Chambers <jc:trillian.mit.edu>
M: 2/4
L: 1/16
K: Em
z2 |\
E3F G2A2 | B2e2 d2B2 | A3B A2F2 | (3FAFE2 D3B, |\
E3F G2A2 | B2e2 d2B2 | B2A2 d3F | ~F2E2 E2 :|
|: z2 |\
B2e2 e2de | f2e2 d2B2 | B2e2 e2de | f2e2 d4 |\
B2e2 e2de | f2e2 d2B2 | B2A2 d3F | (3(FAF)E2 E2 :|

%%center (Second Break, 22 bar drum (mostly) solo)

